X:1
T:Mein freundlichs B.
T:Ludwig Senfl
T:Source : DDT 34---Leipzig---Breitkopf & Härtel---J.Wolf---1908. First print : Newe Deudsche Geistliche Gesenge---Wittemberg---G.Rhau---1544. Editor : André Vierendeels (06/08/17).   
T:Notes : Original clefs : C3, C4, C4, F4 Original note values have been halved Editorial accidentals above the staff
T:Mein freundlichs B.
T:©
T:©
C:Ludwig Senfl
Z:©
%%score [ 1 [ 2 3 ] 4 ]
L:1/8
Q:1/4=120
M:2/2
K:F
V:1 treble nm="Alto" snm="A"
V:2 treble-8 nm="Tenor 1" snm="T 1"
V:3 treble-8 nm="Tenor 2" snm="T 2"
V:4 bass nm="Bass" snm="B"
V:1
 z8 | C8 | E4 E4 | D8 | z4 D4 | F4 F4 | E8 | z2 C2 D2 D2 | C2 A,2 B,4 | C4 A,4 | G,2 C2 C4 | %11
w: |Mein|freund- lichs|B.,|weil-|zu der|Eh'|mir ge- ben|bist zu die-|* ser|Frist, so hab|
 D4 E4 | z4 z2 D2 | F6 ED | E2 E2 D4 | z8 | F4 E2 C2 | D4 C4 | z2 G2 F2 D2 | E4 D4 | z4 F4 | %21
w: in Acht|und|wohl _ _|_ be- dacht,||was sei- *|der Stand,|das eh- *|lich Band,|und|
 E3 D C2 A,2 | B,2 C2 A,4 | G,4 z2 C2 | F2 G2 A4 | B4 A2 G2- | GF F4 E2 | F8 |] %28
w: ler- * * *|* * ne|wohl, was|man tun _|o- der las-|* * * sen|soll.|
V:2
 z8 | c8 | c4 c4 | B3 A Bc d2- | dcBA G2 G2 | F3 G A2 B2 | c4 z2 G2 | c2 c2 B2 G2 | A2 A2 G3 F | %9
w: |Mein|freund- lichs|B., _ _ _ _|_ _ _ _ _ weil|zu _ _ der|Eh' mir|ge- ben bist zu|die- ser Frist, _|
 ED F4 ED | E4 A4 | B4 c4 | d8 | d4 c4 | z2 c2 B2 A2 | B2 d3 B c2 | A2 F2 G2 A2 | D3 E F2 E2 | %18
w: _ _ _ _ _|* so|hab _|_|in Acht|und wohl _|be- tracht _ _|was sei- ner der|Stand, _ _ das|
 D2 d4 B2 | c4 d2 f2 | e2 c4 B2 | c8 | z8 | g3 f e2 c2 | d3 e f3 e | d2 B2 c4 | A2 B2 c4 | c8 |] %28
w: eh- * lich|Band, und ler-|* * ne|wohl,||was _ _ man|tun _ _ _|o- * der|las- * sen|soll.|
V:3
 F8 | A4 A4 | G8 | z4 G4 | B4 B4 | A4 F4 | G4 G4 | F4 D4 | E2 F2 D4 | C8 | z4 F4 | F4 G4 | %12
w: Mein|freund- lichs|B.,|weil|zu der|Eh' mir|ge- ben|bist zu|die- * ser|Fristn|so|hab in|
 A4 G2 B2- | B2 AG A2 A2 | G4 B4 | A2 F2 G4 | F4 c4 | B2 G2 A4 | G4 B4 | A3 G F2 D2 | E2 F2 D4 | %21
w: Acht und wohl|_ _ _ _ be-|tracht, was|sei- * der|Stand, das|eh- * lich|Band, und|ler- * * *|* * ne|
 C8 | z2 C2 F4 | G4 A4 | B4 F4 | G4 F2 E2 | F4 G4 | F8 |] %28
w: wohl,|was man|tun o-|der las-||* sen|soll.|
V:4
 z8 | F,,8 | C,4 C,4 | G,,8 | z4 G,,4 | D,4 D,4 | C,8 | z2 F,,2 B,,2 B,,2 | A,,2 F,,2 G,,4 | %9
w: |Mein|freund- lichs|B.,|weil|zu der|Eh'|mir ge- ben|bist zu die-|
 A,,2 F,,3 G,,A,,B,, | C,4 F,,4 | B,,2 D,2 C,2 E,2 | D,4 z2 G,,2 | D,3 E, F,2 F,2 | C,4 G,4 | %15
w: ser Frist, _ _ _|_ so|hab _ _ in|Acht und|wohl _ _ be-|tracht, was|
 F,2 D,2 E,4 | D,2 D,2 C,2 A,,2 | B,,3 A,, F,,2 C,2 | B,,2 G,,2 D,4 | C,2 A,,2 B,,3 A,, | %20
w: sei- * der|Stand, das eh- *|||* lich Band _|
 G,,2 F,,2 F,4 | G,3 F, E,2 C,2 | D,2 E,2 D,4 | G,,2 C,2 C,2 C,2 | B,,2 G,,2 D,4 | G,,4 z2 C,2 | %26
w: _ _ und|ler- * * *|* * ne|wohl, was man tun|o- der las-|sen, man|
 D,4 C,4 | F,,8 |] %28
w: las- sen-|soll.|

